X:1
T:Title
%%score { ( 1 3 ) | ( 2 4 ) }
L:1/8
M:4/4
K:G
V:1 treble nm="Grand Piano"
V:3 treble 
V:2 bass 
V:4 bass 
V:1
 z4 z2[Q:1/4=108] [B,D]2 | [DB]2 [DB][DB] [DB]2 [CA]2 | [B,G]2 [B,D]2 [B,D]2 [B,D]2 | %3
 [CE]2 [DF][EG] [DA]2 [CF]2 |[M:3/4] [B,G]6 |[M:1/4] [B,D]2 |[M:4/4] [DB]2 [DB][DB] [DB]2 [CA]2 | %7
 [B,G]2 [B,D]2 [B,D]2 z E | [A,DF]2 [A,DF][A,DF] [A,EG]2 [A,EG]2 |[M:3/4] [FA]6 |[M:1/4] D2 | %11
[M:4/4] [DGB]2 [^DAB][DAB] [EGB]2 [B,E]2 |[M:9/8] [DFA]2 [^CEGA]- [CEGA] [=CDFA]2- [CDFA] z z | %13
[M:4/4] [CDFA]2 [DFAc][Ac] [DGB]2 z F, |[M:3/4] [B,-DG]4 B,2 |[M:1/4] D2 |[M:4/4] E2 ^DE A2 GE | %17
[M:9/8] [B,D]2 [_B,^C] [=B,D] [B,DG]2- [B,DG] [DGB]2 | %18
[M:4/4] [^CEGB]2 [CEGA][CE] [CEGB]2 [=CDFA]2 |[M:3/4] G6 |] %20
V:2
 z4 z2 [G,,G,]2 | [G,,G,]2 [G,,G,][G,,G,] [D,F,]2 [D,F,]2 | [G,,G,]2 [G,,G,]2 [G,,G,]2 [G,,G,]2 | %3
 [C,G,]2 [C,G,][C,G,] [D,F,]2 [D,A,]2 |[M:3/4] [G,,G,]6 |[M:1/4] [G,,G,]2 | %6
[M:4/4] [G,,G,]2 [G,,G,][G,,G,] [D,F,]2 [D,F,]2 | [G,,G,]2 [G,,G,]2 [G,,G,]2 B,,_B,, | %8
 A,,2 A,,A,, ^C,2 E,2 |[M:3/4] z2 A,B, C2 |[M:1/4] B,2 | %11
[M:4/4] [G,,G,]2 [F,,F,]2 [E,,E,]2 [G,,G,]2 |[M:9/8] z3 z3 z[K:treble] D2 | %13
[M:4/4][K:bass] z2 [A,,A,]2 z4 |[M:3/4] G,,2 D,B,, G,,2 |[M:1/4] B,2 | %16
[M:4/4] [C,G,C]2 [C,E,C][C,G,C] [C,E,C]2 [C,E,C][C,G,C] | %17
[M:9/8] [G,,G,]2 [^D,,^D,]- [D,,D,] [=D,,=D,]2- [D,,D,] G,,2 | %18
[M:4/4] [A,,,A,,]2 [^C,,^C,]2 [E,,E,]2 [F,,F,]2 |[M:3/4] z2 ^D,2 =D,2 |] %20
V:3
 x8 | x8 | x8 | x8 |[M:3/4] x6 |[M:1/4] x2 |[M:4/4] x8 | z4 z2 [G,D]2 | x8 |[M:3/4] D2 z2 z2 | %10
[M:1/4] x2 |[M:4/4] x8 |[M:9/8] x9 |[M:4/4] z4 z2 [CFA]2 |[M:3/4] G,2 z2 D2 |[M:1/4] x2 | %16
[M:4/4] x8 |[M:9/8] x9 |[M:4/4] x8 |[M:3/4] [G,B,D]2 [_B,^C]2 [=B,D]2 |] %20
V:4
 x8 | x8 | x8 | x8 |[M:3/4] x6 |[M:1/4] x2 |[M:4/4] x8 | x8 | x8 |[M:3/4] D,6 |[M:1/4] x2 | %11
[M:4/4] x8 |[M:9/8] [A,,A,]2 [E,,E,]- [E,,E,] [D,,D,]2- [D,,D,][K:treble] z F | %13
[M:4/4][K:bass] C,2 z [DF] [D,,D,]2 [E,,E,]F,, |[M:3/4] x6 |[M:1/4] x2 |[M:4/4] x8 |[M:9/8] x9 | %18
[M:4/4] x8 |[M:3/4] G,,6 |] %20

